packages/product-components/src/images/networks/arb.svg

<svg width="32" height="32" viewBox="0 0 32 32" fill="none" xmlns="http://www.w3.org/2000/svg">
<style>
@media (prefers-color-scheme: dark) {
    .background {
        fill: #F6F6F6;
    }
    .foreground {
        fill: #1F1F1F;
    }
}
</style>
<g clip-path="url(#clip0_1473_78)">
<path class="background" d="M0 8C0 3.58172 3.58172 0 8 0H24C28.4183 0 32 3.58172 32 8V24C32 28.4183 28.4183 32 24 32H8C3.58172 32 0 28.4183 0 24V8Z" fill="#1F1F1F"/>
<path class="foreground" fill-rule="evenodd" clip-rule="evenodd" d="M16.1635 5.5456C16.1155 5.5168 16.0575 5.4976 15.9995 5.4976V5.488C15.9425 5.488 15.8845 5.5072 15.8365 5.536L7.02353 10.624C6.92753 10.6816 6.86052 10.7968 6.86052 10.912V21.0976C6.86052 21.2128 6.91853 21.328 7.02353 21.3856L8.36824 22.1619L12.6396 10.4513C12.6976 10.2977 12.8506 10.1921 13.0146 10.1921H15.2505L15.2606 10.1825C15.3946 10.1825 15.4906 10.3169 15.4426 10.4513L10.6812 23.4973L11.6019 24.0288L16.5565 10.4513C16.6145 10.2977 16.7675 10.1921 16.9315 10.1921H19.1675V10.1825C19.3025 10.1825 19.3985 10.3169 19.3505 10.4513L13.9149 25.3642L15.8365 26.4736C15.8845 26.5024 15.9425 26.5216 15.9995 26.5216C16.0575 26.5216 16.1155 26.5024 16.1635 26.4736L18.0931 25.3595L16.6146 21.2991C16.5856 21.2031 16.5856 21.1071 16.6146 21.0207L17.7756 17.8335C17.8426 17.6607 18.0826 17.6607 18.1506 17.8335L20.4063 24.0239L21.3266 23.4925L18.5726 15.9422C18.5436 15.8462 18.5436 15.7502 18.5726 15.6638L19.7346 12.4766C19.8016 12.3038 20.0416 12.3038 20.1086 12.4766V12.4862L23.6389 22.1574L24.9755 21.3856C25.0715 21.328 25.1395 21.2128 25.1395 21.0976V10.9216C25.1395 10.8064 25.0815 10.6912 24.9755 10.6336L16.1635 5.5456ZM13.4002 26.7762L15.0875 27.7504C15.3665 27.9136 15.6835 27.9904 15.9995 27.9904C16.3165 27.9904 16.6235 27.9136 16.9115 27.7504L18.6072 26.7714L18.6106 26.7807L20.9246 25.4463L20.9207 25.4358L21.8415 24.9042L21.8466 24.9182L24.1596 23.5838L24.1542 23.569L25.7245 22.6624C26.2915 22.336 26.6365 21.7408 26.6365 21.088V10.912C26.6365 10.2592 26.2915 9.664 25.7245 9.3376L16.9025 4.2496C16.6249 4.08717 16.3105 4.01033 15.995 4.00961L15.9995 4.0096H15.9905L15.995 4.00961C15.6806 4.01033 15.3742 4.08717 15.0875 4.2496L6.27553 9.3376C5.70853 9.664 5.36353 10.2592 5.36353 10.912V21.088C5.36353 21.7408 5.70853 22.336 6.27553 22.6624L7.85341 23.5735L7.84955 23.584L10.1626 24.9185L10.1661 24.9088L11.0868 25.4404L11.0845 25.4465L13.3985 26.7808L13.4002 26.7762Z" fill="#F6F6F6"/>
</g>
<defs>
<clipPath id="clip0_1473_78">
<rect class="background" width="32" height="32" fill="white"/>
</clipPath>
</defs>
</svg>

<svg xmlns="http://www.w3.org/2000/svg" width="32" height="32" viewBox="0 0 32 32" fill="none">
    <path class="bg" fill="#1F1F1F" d="M0 8a8 8 0 0 1 8-8h16a8 8 0 0 1 8 8v16a8 8 0 0 1-8 8H8a8 8 0 0 1-8-8z"/>
    <path class="fg" fill="#F6F6F6" fill-rule="evenodd" d="M16.163 5.546A.3.3 0 0 0 16 5.498v-.01a.3.3 0 0 0-.163.048l-8.812 5.088a.35.35 0 0 0-.163.288v10.186c0 .115.058.23.163.288l1.344.776 4.272-11.71a.41.41 0 0 1 .375-.26h2.236l.01-.01c.134 0 .23.135.182.27L10.68 23.496l.92.532 4.955-13.578a.41.41 0 0 1 .375-.259h2.236v-.01c.135 0 .231.135.183.27l-5.435 14.912 1.921 1.11a.3.3 0 0 0 .163.048c.059 0 .117-.02.164-.048l1.93-1.114-1.478-4.06a.46.46 0 0 1 0-.28l1.16-3.186a.2.2 0 0 1 .376 0l2.255 6.19.92-.532-2.753-7.55a.46.46 0 0 1 0-.278l1.162-3.187a.2.2 0 0 1 .374 0v.01l3.53 9.67 1.337-.771a.35.35 0 0 0 .164-.288V10.922a.33.33 0 0 0-.165-.288zM13.4 26.776l1.688.974c.279.164.596.24.912.24s.623-.076.912-.24l1.695-.979.004.01 2.314-1.335-.004-.01.92-.532.006.014 2.313-1.334-.006-.015 1.57-.907a1.81 1.81 0 0 0 .913-1.574V10.912a1.81 1.81 0 0 0-.913-1.574L16.902 4.25a1.8 1.8 0 0 0-.907-.24H16h-.01.005c-.314 0-.62.077-.907.24L6.276 9.338a1.81 1.81 0 0 0-.912 1.574v10.176c0 .653.345 1.248.912 1.574l1.577.912-.003.01 2.313 1.335.003-.01.92.531-.002.006 2.315 1.335z"/>
</svg>
